epam-assets/icon-sources/18/internal-logo/ethicsLine.svg

<svg width="18" height="18" viewBox="0 0 18 18" fill="none" xmlns="http://www.w3.org/2000/svg">
<g id="18/internal-logo/ethicsLine">
<path id="icon" fill-rule="evenodd" clip-rule="evenodd" d="M6.68465 16.1904C3.67562 15.2111 1.5 12.3746 1.5 9.028C1.5 4.8704 4.85786 1.5 9 1.5C13.1421 1.5 16.5 4.8704 16.5 9.028C16.5 12.3746 14.3244 15.2111 11.3154 16.1904C11.298 15.8391 11.0087 15.5596 10.6544 15.5596H9.66177V13.5669C9.66177 13.2777 9.47762 13.0317 9.22059 12.9405V8.36376H12.5272L11.3626 11.4635H11.3162C11.6092 11.9292 12.1266 12.2385 12.7159 12.2385C13.3048 12.2385 13.8218 11.9296 14.115 11.4645L14.12 11.4635L12.8501 8.36376H13.8529C14.0973 8.36376 14.1604 8.02421 13.9324 7.93582L9.22059 6.10853V5.2262C9.47762 5.13502 9.66177 4.88897 9.66177 4.59976C9.66177 4.23292 9.36548 3.93553 9 3.93553C8.63452 3.93553 8.33824 4.23292 8.33824 4.59976C8.33824 4.88897 8.52238 5.13502 8.77941 5.2262V6.10853L4.06756 7.93582C3.83963 8.02421 3.90271 8.36376 4.14706 8.36376H5.20139L4.03676 11.4635H3.99033C4.2834 11.9292 4.80075 12.2385 5.39006 12.2385C5.97896 12.2385 6.496 11.9296 6.78917 11.4645L6.79412 11.4635L5.52423 8.36376H8.77941V12.9405C8.52238 13.0317 8.33824 13.2777 8.33824 13.5669V15.5596H7.34559C6.99128 15.5596 6.70201 15.8391 6.68465 16.1904ZM8.77936 6.58328V7.92096H5.33L8.77936 6.58328ZM9.22057 7.92096V6.58328L12.6699 7.92096H9.22057ZM8.99998 4.93187C8.81724 4.93187 8.6691 4.78318 8.6691 4.59976C8.6691 4.41633 8.81724 4.26764 8.99998 4.26764C9.18273 4.26764 9.33087 4.41633 9.33087 4.59976C9.33087 4.78318 9.18273 4.93187 8.99998 4.93187ZM4.26501 11.4635L5.36474 8.55341L6.56445 11.4635H4.26501ZM11.5908 11.4635L12.6905 8.55341L13.8903 11.4635H11.5908Z" fill="#6C6F80"/>
</g>
</svg>

<svg xmlns="http://www.w3.org/2000/svg" width="18" height="18" fill="none" viewBox="0 0 18 18">
  <path fill="#6C6F80" fill-rule="evenodd" d="M6.685 16.19A7.528 7.528 0 0 1 1.5 9.028C1.5 4.87 4.858 1.5 9 1.5c4.142 0 7.5 3.37 7.5 7.528a7.528 7.528 0 0 1-5.185 7.162.663.663 0 0 0-.66-.63h-.993v-1.993a.664.664 0 0 0-.441-.627V8.364h3.306l-1.164 3.1h-.047a1.652 1.652 0 0 0 2.799 0h.005l-1.27-3.1h1.003c.244 0 .307-.34.08-.428L9.22 6.109v-.883A.664.664 0 0 0 9 3.936a.664.664 0 0 0-.22 1.29v.883L4.067 7.936c-.228.088-.165.428.08.428H5.2l-1.164 3.1H3.99a1.652 1.652 0 0 0 2.8 0h.004l-1.27-3.1H8.78v4.576a.664.664 0 0 0-.44.627v1.993h-.993a.663.663 0 0 0-.661.63Zm2.094-9.607v1.338H5.33l3.45-1.338Zm.442 1.338V6.583l3.449 1.338H9.22ZM9 4.931a.331.331 0 1 1 .001-.662.331.331 0 0 1-.001.663Zm-4.735 6.532 1.1-2.91 1.2 2.91h-2.3Zm7.326 0 1.1-2.91 1.2 2.91h-2.3Z" clip-rule="evenodd"/>
</svg>
